public/assets/icons/save.svg

<svg width="20" height="20" viewBox="0 0 20 20" fill="none" xmlns="http://www.w3.org/2000/svg">
<path d="M7.5 4.37533C7.15482 4.37533 6.875 4.65515 6.875 5.00033C6.875 5.3455 7.15482 5.62533 7.5 5.62533H12.5C12.8452 5.62533 13.125 5.3455 13.125 5.00033C13.125 4.65515 12.8452 4.37533 12.5 4.37533H7.5Z" fill="#877EFF"/>
<path fill-rule="evenodd" clip-rule="evenodd" d="M9.95209 1.04199C8.22495 1.04198 6.8643 1.04197 5.80107 1.18647C4.70935 1.33484 3.83841 1.6459 3.15403 2.33769C2.47058 3.02855 2.1641 3.90617 2.01775 5.0065C1.87498 6.07992 1.87499 7.45418 1.875 9.20122V13.4495C1.87499 14.7058 1.87498 15.7005 1.95501 16.4493C2.03409 17.1894 2.20373 17.857 2.6882 18.3035C3.07688 18.6617 3.56842 18.8875 4.09304 18.9476C4.74927 19.0226 5.36199 18.7093 5.96557 18.2818C6.57636 17.8491 7.3173 17.1938 8.25212 16.3669L8.28254 16.34C8.71593 15.9567 9.00935 15.698 9.25416 15.519C9.49076 15.346 9.63522 15.2834 9.75698 15.2589C9.91743 15.2266 10.0826 15.2266 10.243 15.2589C10.3648 15.2834 10.5092 15.346 10.7458 15.519C10.9906 15.698 11.2841 15.9567 11.7175 16.34L11.7479 16.367C12.6827 17.1938 13.4237 17.8491 14.0344 18.2818C14.638 18.7093 15.2507 19.0226 15.907 18.9476C16.4316 18.8875 16.9231 18.6617 17.3118 18.3035C17.7963 17.857 17.9659 17.1894 18.045 16.4493C18.125 15.7005 18.125 14.7058 18.125 13.4495V9.2012C18.125 7.45418 18.125 6.07991 17.9823 5.0065C17.8359 3.90617 17.5294 3.02855 16.846 2.33769C16.1616 1.6459 15.2907 1.33484 14.1989 1.18647C13.1357 1.04197 11.7751 1.04198 10.0479 1.04199H9.95209ZM4.04267 3.2168C4.45664 2.79834 5.01876 2.55428 5.9694 2.42508C6.93871 2.29335 8.21438 2.29199 10 2.29199C11.7856 2.29199 13.0613 2.29335 14.0306 2.42508C14.9812 2.55428 15.5434 2.79834 15.9573 3.2168C16.3722 3.63619 16.6149 4.20715 16.7432 5.17131C16.8737 6.15276 16.875 7.44385 16.875 9.24826V13.4094C16.875 14.7147 16.8741 15.6421 16.8021 16.3165C16.7282 17.0076 16.592 17.267 16.4647 17.3843C16.2699 17.5639 16.0248 17.6759 15.7649 17.7057C15.5985 17.7247 15.3196 17.6603 14.757 17.2617C14.2081 16.873 13.5176 16.2634 12.5456 15.4037L12.5238 15.3844C12.1177 15.0252 11.781 14.7274 11.4837 14.51C11.1728 14.2827 10.8594 14.108 10.4899 14.0335C10.1665 13.9684 9.83352 13.9684 9.51015 14.0335C9.14064 14.108 8.82715 14.2827 8.51633 14.51C8.21902 14.7274 7.88226 15.0252 7.47621 15.3844L7.45439 15.4037C6.48239 16.2634 5.79189 16.873 5.24304 17.2617C4.68038 17.6603 4.40151 17.7247 4.23515 17.7057C3.97516 17.6759 3.73014 17.5639 3.53531 17.3843C3.40803 17.267 3.27179 17.0076 3.19793 16.3165C3.12587 15.6421 3.125 14.7147 3.125 13.4094V9.24826C3.125 7.44385 3.1263 6.15276 3.25684 5.17131C3.38508 4.20715 3.62777 3.63619 4.04267 3.2168Z" fill="#877EFF"/>
</svg>

<?xml version="1.0"?>
<svg width="20" height="20" xmlns="http://www.w3.org/2000/svg" xmlns:svg="http://www.w3.org/2000/svg">
 <g class="layer">
  <title>Layer 1</title>
  <path d="m7.5,4.38c-0.35,0 -0.62,0.28 -0.62,0.62c0,0.35 0.27,0.63 0.62,0.63l5,0c0.35,0 0.63,-0.28 0.63,-0.63c0,-0.34 -0.28,-0.62 -0.63,-0.62l-5,0z" fill="#ff0000" id="svg_1"/>
  <path clip-rule="evenodd" d="m9.95,1.04c-1.73,0 -3.09,0 -4.15,0.15c-1.09,0.14 -1.96,0.46 -2.65,1.15c-0.68,0.69 -0.99,1.57 -1.13,2.67c-0.15,1.07 -0.15,2.44 -0.14,4.19l0,4.25c-0.01,1.26 -0.01,2.25 0.08,3c0.07,0.74 0.24,1.41 0.73,1.85c0.39,0.36 0.88,0.59 1.4,0.65c0.66,0.07 1.27,-0.24 1.88,-0.67c0.61,-0.43 1.35,-1.09 2.28,-1.91l0.03,-0.03c0.44,-0.38 0.73,-0.64 0.97,-0.82c0.24,-0.17 0.39,-0.24 0.51,-0.26c0.16,-0.03 0.32,-0.03 0.48,0c0.12,0.02 0.27,0.09 0.51,0.26c0.24,0.18 0.53,0.44 0.97,0.82l0.03,0.03c0.93,0.82 1.67,1.48 2.28,1.91c0.61,0.43 1.22,0.74 1.88,0.67c0.52,-0.06 1.01,-0.29 1.4,-0.65c0.49,-0.44 0.66,-1.11 0.74,-1.85c0.08,-0.75 0.08,-1.74 0.08,-3l0,-4.25c0,-1.75 0,-3.12 -0.15,-4.19c-0.14,-1.1 -0.45,-1.98 -1.13,-2.67c-0.69,-0.69 -1.56,-1.01 -2.65,-1.15c-1.06,-0.15 -2.42,-0.15 -4.15,-0.15l-0.1,0zm-5.91,2.18c0.42,-0.42 0.98,-0.67 1.93,-0.79c0.97,-0.14 2.24,-0.14 4.03,-0.14c1.79,0 3.06,0 4.03,0.14c0.95,0.12 1.51,0.37 1.93,0.79c0.41,0.42 0.65,0.99 0.78,1.95c0.13,0.98 0.14,2.27 0.14,4.08l0,4.16c0,1.3 -0.01,2.23 -0.08,2.91c-0.07,0.69 -0.21,0.95 -0.34,1.06c-0.19,0.18 -0.44,0.3 -0.7,0.33c-0.16,0.01 -0.44,-0.05 -1,-0.45c-0.55,-0.39 -1.24,-1 -2.21,-1.86l-0.03,-0.02c-0.4,-0.35 -0.74,-0.65 -1.04,-0.87c-0.31,-0.23 -0.62,-0.4 -0.99,-0.48c-0.32,-0.06 -0.66,-0.06 -0.98,0c-0.37,0.08 -0.68,0.25 -0.99,0.48c-0.3,0.22 -0.64,0.52 -1.04,0.87l-0.03,0.02c-0.97,0.86 -1.66,1.47 -2.21,1.86c-0.56,0.4 -0.84,0.46 -1,0.45c-0.26,-0.03 -0.51,-0.15 -0.7,-0.33c-0.13,-0.11 -0.27,-0.37 -0.34,-1.06c-0.07,-0.68 -0.07,-1.61 -0.07,-2.91l0,-4.16c0,-1.81 0,-3.1 0.13,-4.08c0.13,-0.96 0.37,-1.53 0.78,-1.95z" fill="#ff0000" fill-rule="evenodd" id="svg_2"/>
 </g>
</svg>
